X:1
T:Title
%%score { ( 1 3 4 ) | ( 2 5 ) }
L:1/8
Q:1/4=100
M:4/4
K:Bb
V:1 treble nm="Grand Piano"
V:3 treble 
V:4 treble 
V:2 bass 
V:5 bass 
V:1
 [DB][Dc][Dd][DB] [DA]2 [DG]2 | [DG]4[K:bass] [DF]4 | [DB][Dc][Dd][DB] [DA]2 [DG]2 | z4 F4 | %4
w: Ira~B.~Wilson * * * * *||||
 [DF][DG][DA][DB] [Dc]2 [ce]2 | [Bd]4 [GB]4 | [=Ec]2 [B,CEG]2 ^FGAB | [Ec]6 A,2 | %8
w: ||||
 [DB][Dc][Dd][DB] [DA]2 [DG]2 | [DG]4[K:bass] [DF]4 | [Fd][Fe][Fd][Fc] [FG]2 [Fd]2 | z4 G4 | %12
w: ||||
 [_DG]ABB [A,DA]2 [B,DG]2 | [DF]4 d4 | [=Ec]dcB A2 [EG]2 |[M:7/8] z2 B,2 E3 |[M:1/4] dc | %17
w: |||||
[M:4/4] [DB]2 [DB]4 c_d | [Fd]2 [Fd]4 [Bd][Af] | [Ge]2 [Af]2 [Bg]2 [c^f]2 | [df]6 z2 | %21
w: ||||
 [df]2 [ce]4 [ce]f | [ce]2 [Bd]4 [Bd]d | [B=e]2 [Ge]2 [Ae]2 [Be]2 | e4 z4 | z2 z B [Ec]2 [=E_d]2 | %26
w: |||||
 z2 [Fd]4[K:bass][K:treble] z2 | [A_d]2 [_D=Ed]2 [Ad]2 [G=e]2 |[M:9/8] d2- [A,d]- [A,d] e2- edc | %29
w: |||
[M:4/4] [DB]2 c2 _d2 =d2 |[M:5/4] f2- [cf]2 [=Bf]6 |[M:9/8] [ce]f[eg] ^f [d=f]2- [df] [ce]2 | %32
w: |||
[M:4/4] [Bd]6[K:bass] z2 |] %33
w: |
V:2
 [B,,F,]2 [F,,F,]2 [B,,F,]2 [F,,F,]2 | [B,,F,]2 F,,2 B,,2 F,,2 | %2
 [B,,F,]2 [F,,F,]2 [B,,F,]2 [F,,F,]2 | [A,,F,]2 F,,2 [A,,F,]2 F,,2 | %4
 [B,,F,]2 [F,,F,]2 [A,,^F,]2 [^F,,F,]2 | [G,,G,]2 [G,B,][G,B,] [G,B,D]2 G,2 | %6
 C,2 G,2 =E,2 .[G,C=E]2 | F,,2 F,A, G,2 F,2 | [B,,F,]2 [F,,F,]2 [B,,F,]2 [F,,F,]2 | %9
 [B,,F,]2 F,,2 B,,2 F,,2 | [=B,,G,]2 [G,,G,]2 [B,,G,]2 [G,,G,]2 | [C,G,]2 G,G, [G,C]2 G,2 | %12
 z _DDD E,2 E,2 | z4 [F,B,]2 z2 | z =E[G,E][DE] [CE]2 [C,B,]2 |[M:7/8] [F,A,]2 G,2 [A,C]3 | %16
[M:1/4] z E |[M:4/4] z4 z2 [F,B,]2 | B,,2 [F,B,]2 B,,2 [F,B,]2 | [E,,E,]2 B,2 E2 B,2 | %20
 z4 z2 [F,B,D]2[K:treble] | z4 z2 [F,A,E]2[K:treble] | z4 z2[K:treble] [G,B,D]2 | %23
 C,2 [C,B,]2 [C,C]2 [C,G,]2 | [F,,F,]2 F,2 [F,A,]2[K:treble] FE | z2 F,2 z4 | %26
 B,,2 [F,B,]2 z2[K:treble] FG | A,,2 A,2 A,,2 [A,_D]2 | %28
[M:9/8] [D,,D,]2 D,- D, [C,A,]2- [C,A,][K:treble]FE | %29
[M:4/4][K:bass] [B,,,B,,]2 [A,E]2 [G,=E]2 [F,F]2 |[M:5/4] [B,,B,]2 [_A,,_A,]2 [G,,G,]6 | %31
[M:9/8] z[K:treble] .d2 B[K:bass] F,,2- F,, [F,A,C]2 |[M:4/4] B,,2 F,2 B,,,2 z2 |] %33
V:3
 x8 | z2[K:bass] F,2 F,2 F,2 | x8 | E8 | x8 | z2 DD z2 [B,D]2 | x8 | x8 | x8 | %9
 z2[K:bass] F,2 F,2 F,2 | x8 | c2- [Cc-][Cc] z2 C2 | x8 | z2 B,B, z2 B,2 | x8 | %15
[M:7/8] F-F-F- F- F3- |[M:1/4] F z |[M:4/4] z2 B,2 z4 | x8 | x8 | z2 [B,D]2 z2 [df]g | x8 | x8 | %23
 x8 | c2- [B,c-]2 [ce]2 dc | [DB]4 z4 | [Fd]2 z2[K:bass] F,,2[K:treble] dd | x8 | %28
[M:9/8] F6- F/ z/ z z |[M:4/4] x8 |[M:5/4] d2 z2 z2 z4 |[M:9/8] x9 | %32
[M:4/4] z2[K:bass] [B,D]2 B,,2 z2 |] %33
V:4
 x8 | x2[K:bass] x6 | x8 | G2- [F,G]2 z2 F,2 | x8 | x8 | x8 | x8 | x8 | x2[K:bass] x6 | x8 | E8 | %12
 x8 | x8 | x8 |[M:7/8] x7 |[M:1/4] x2 |[M:4/4] x8 | x8 | x8 | x8 | x8 | x8 | x8 | x8 | z2 B,2 z4 | %26
 x4[K:bass] x2[K:treble] x2 | x8 |[M:9/8] x9 |[M:4/4] x8 |[M:5/4] x10 |[M:9/8] x9 | %32
[M:4/4] x2[K:bass] x6 |] %33
V:5
 x8 | x8 | x8 | x8 | x8 | x8 | x8 | x8 | x8 | x8 | x8 | x8 | =E,,2 [E,G,]2 z4 | %13
 F,,2 F,F, F2- [F,F]2 | C,2 z2 z4 |[M:7/8] x7 |[M:1/4] x2 |[M:4/4] B,,2 F,2 F,,2 E=E | x8 | x8 | %20
 B,,2 F,2 F,,2 z[K:treble] e | A,,2 [F,A,E]2 F,,2 z[K:treble] d | %22
 G,,2 [G,B,D]2 G,,2[K:treble] z B | x8 | x6[K:treble] x2 | B,,2 z D F,,2 [F,B,]2 | %26
 z4 z2[K:treble] [F,B,D]2 | x8 |[M:9/8] x7[K:treble] x2 |[M:4/4][K:bass] x8 |[M:5/4] x10 | %31
[M:9/8] C,2[K:treble] [G,CE]- [G,CE][K:bass] z z z3 |[M:4/4] x8 |] %33

